X:1
T:Title
%%score { ( 1 3 ) | ( 2 4 ) }
L:1/8
M:4/4
K:F
V:1 treble nm="Grand Piano"
V:3 treble 
V:2 bass 
V:4 bass 
V:1
 z4 z[Q:1/4=86] [CA][FA][GB] | [CAc]3 [CAc] [CAc][A,FA][G,EG][A,FA] | [B,GB]4- [B,GB][CB][EB][FA] | %3
 [B,GB]3 [B,GB] [B,GB][A,FA][CAc][B,GB] | [FA]6 z2 | [CAc]3 [CAc] [_Ec_e][Ece][DBd][CAc] | %6
[M:5/8] [DB]-[DB]- [DB]3 |[M:3/8] [Bd][Fd][G^c] |[M:4/4] [CAc]3 [A,CA] [B,GB]3 [A,FA] | %9
[M:5/8] [FA]-[FA]- [FA]3 |[M:3/8] c=B[CAc] |[M:4/4] [GB]4 z4 | B2 A2- AA[^CA][CG] | %13
 [DF]3 [DF] [DF][DF][DG][D_A] |[M:17/16] A/-A/-A/-A/-A/-A/-A/-A-<A z/ z/ z/ z/ z | %15
[M:4/4] A3 A ccBA | [DG]2 [Fd]2- [Fd][DB][DF][^CG] | %17
[M:19/16] A/-A/-A-<AC[EG]/-[EG]/-[EG]/-[EG]/-[EG]/-[EG]-<[EG]F |[M:5/8] F-F- F3 |] %19
V:2
 z4 z A,A,B, | F,,C,F,C, F,,C,E,C, | C,E,G,E, C,B,B,A, | C,E,G,E, C,F,E,C, | F,F,,A,,C, F,A,A,B, | %5
 F,,C,F,C, F,,C,F,A, |[M:5/8] B,-B,- B,3 |[M:3/8] DD^C |[M:4/4] C,F,A,F, C,E,G,C, | %9
[M:5/8] F,D,C, A,,F,, |[M:3/8][K:treble] A_A[K:bass]F, | %11
[M:4/4] C,C,C,C, [C,G,][C,G,][C,G,][E,G,D] | [F,D]2 [F,C]2- [F,C][E,A,^C][A,,A,][A,,A,] | %13
 [D,A,]3 [D,A,] [B,,B,][B,,B,][B,,F,][B,,D,] | %14
[M:17/16] A,,-<A,,-[A,,E,]/-[A,,E,]/-[A,,E,]/-[A,,E,]-<[A,,E,][F,A,][F,A,C][F,B,C] | %15
[M:4/4] [F,CF]3 [F,CF] [F,A,_E][F,A,E][F,B,D][F,C] | %16
 [B,,B,]2 [B,,B,]2- [B,,B,][B,,F,][B,,B,][B,,B,] | %17
[M:19/16] [C,F,C]/-[C,F,C]/-[C,F,C]-<[C,F,C][C,A,][C,B,]/-[C,B,]/-[C,B,]/-[C,B,]/-[C,B,]/-[C,B,]-<[C,B,][F,A,C] | %18
[M:5/8] [F,A,C]-[F,A,C]- [F,A,C]3 |] %19
V:3
 x8 | x8 | x8 | x8 | A,4 A,[CA][FA][GB] | x8 |[M:5/8] x5 |[M:3/8] x3 |[M:4/4] x8 | %9
[M:5/8] A,- A,3 A, |[M:3/8] x3 |[M:4/4] CCC[CFB] [EB][DB][EB]B | x8 | x8 | %14
[M:17/16] D-<D^C/-C/-C/-C-<C=CFG |[M:4/4] x8 | x8 |[M:19/16] x19/2 |[M:5/8] x5 |] %19
V:4
 x8 | x8 | x8 | x8 | x8 | x8 |[M:5/8] z D,F, D,B,, |[M:3/8] x3 |[M:4/4] x8 |[M:5/8] x5 | %10
[M:3/8][K:treble] x2[K:bass] x |[M:4/4] x8 | x8 | x8 | %14
[M:17/16] F,-<F, z/ z/ z/ z/ z/ z/ z/ z/ z/ z/ z/ z |[M:4/4] x8 | x8 |[M:19/16] x19/2 | %18
[M:5/8] x5 |] %19

